X:35
T:Neapolitan Dance, The
M:2/4
L:1/8
B:Thompson's Compleat Collection of 200 Favourite Country Dances, vol. 3 (London, 1773)
Z:Transcribed and edited by Flynn Titford-Mock, 2007
Z:abc's:AK/Fiddler's Companion
K:G
G | (B/c/d) cB | AGAB | (ef/g/) fe | {e}d3 c | (B/c/d) cB | AGFG | egA^c | d3 :|
|: G/A/B/A/ G/A/B/A/ | G2 zG | .G2.e2 | d4 | dBBB | cAAA | BGDF | G4 :|
|: DGGG | EGGG | (A>Bc)c | cBAG | DGGG | EGGG | A>GAB | G4 :|
|: G>AB>c | .d2.B2 | .c2.A2 | .B2.G2 | .c2.A2 | .B2.G2 | A>GAB | G4 :|
|: GDDD | E2D2 | Gddd | e2d2 | dDDD | E2 Dc | BG {B}AG/F/ | G4 :|

